svg/u1f973.svg

<svg viewBox="0 0 128 128" xmlns="http://www.w3.org/2000/svg">
  <defs>
    <radialGradient id="face_1_" cx="63.59" cy="75.0901" gradientUnits="userSpaceOnUse" r="50.6587">
      <stop offset="0.5" stop-color="#FDE030"/>
      <stop offset="0.92" stop-color="#F7C02B"/>
      <stop offset="1" stop-color="#F4A223"/>
    </radialGradient>
    <radialGradient id="SVGID_1_" cx="34.489743" cy="-85.362664" gradientTransform="matrix(0.98 0 0 -0.88 0 0)" gradientUnits="userSpaceOnUse" r="19.4365">
      <stop offset="0" stop-color="#ED7770"/>
      <stop offset="0.9" stop-color="#ED7770" stop-opacity="0"/>
    </radialGradient>
    <radialGradient id="SVGID_2_" cx="126.52" cy="-1172.59" gradientTransform="matrix(1 0 0 -1 0 0)" gradientUnits="userSpaceOnUse" r="19.43">
      <stop offset="0" stop-color="#ED7770"/>
      <stop offset="0.9" stop-color="#ED7770" stop-opacity="0"/>
    </radialGradient>
    <linearGradient id="SVGID_3_" gradientTransform="matrix(1 0 0 -1 0 0)" gradientUnits="userSpaceOnUse" x1="82.19" x2="119.38" y1="-82.7255" y2="-82.7255">
      <stop offset="0" stop-color="#004054"/>
      <stop offset="0.99" stop-color="#45A4FF"/>
    </linearGradient>
  </defs>
  <path id="face" d="M63.6,124.8 C38.79,124.8 12,109.24 12,75.09 C12,40.94 38.79,25.38 63.6,25.38 C77.38,25.38 90.1,29.91 99.53,38.18 C109.75,47.26 115.18,60.06 115.18,75.09 C115.18,90.12 109.75,102.84 99.53,111.91 C90.1,120.18 77.29,124.8 63.6,124.8 Z" fill="url(#face_1_)"/>
  <path d="M106.19,45.54 C111.07,53.64 113.57,62.96 113.4,72.42 C113.4,87.42 107.97,100.17 97.75,109.24 C88.32,117.51 75.52,122.13 61.82,122.13 C45.76,122.13 28.89,115.6 18.98,101.73 C28.55,117.44 46.54,124.8 63.6,124.8 C77.29,124.8 90.1,120.18 99.53,111.91 C109.75,102.83 115.18,90.12 115.18,75.09 C115.18,63.76 112.09,53.69 106.19,45.54 Z" fill="#EB8F00"/>
  <path d="M51.3,71.6 A17.5 16.5 0 1 1 16.3,71.6 A17.5 16.5 0 1 1 51.3,71.6 Z" fill="url(#SVGID_1_)" opacity="0.8"/>
  <path d="M111.7,71.6 A17.5 16.5 0 1 1 76.7,71.6 A17.5 16.5 0 1 1 111.7,71.6 Z" fill="url(#SVGID_2_)" opacity="0.8"/>
  <path d="M31,15 A7 5 0 1 1 17,15 A7 5 0 1 1 31,15 Z" fill="#FF00A2"/>
  <path d="M52.528,22.411 C54.676,24.559 55.087,27.63 53.447,29.27 C51.807,30.91 48.736,30.499 46.588,28.351 C44.44,26.203 44.029,23.132 45.669,21.492 C47.309,19.852 50.38,20.264 52.528,22.411 Z" fill="#FD3B3B"/>
  <path d="M79.153,13.07 C80.471,14.773 78.566,18.456 74.897,21.296 C71.229,24.136 67.186,25.057 65.867,23.353 C64.549,21.65 66.454,17.967 70.123,15.128 C73.792,12.288 77.834,11.367 79.153,13.07 Z" fill="#00EEFF"/>
  <path d="M25.219,80.227 C27.014,83.336 27.345,86.505 25.958,87.306 C24.571,88.107 21.992,86.236 20.197,83.127 C18.402,80.018 18.071,76.849 19.458,76.048 C20.845,75.247 23.425,77.118 25.219,80.227 Z" fill="#0048FF"/>
  <path d="M100,110.5 A3.5 5.5 0 1 1 93,110.5 A3.5 5.5 0 1 1 100,110.5 Z" fill="#F63BBE"/>
  <path d="M120.694,53.353 C121.33,54.256 119.465,56.664 116.53,58.73 C113.595,60.796 110.7,61.739 110.064,60.836 C109.428,59.933 111.292,57.525 114.228,55.459 C117.163,53.393 120.058,52.45 120.694,53.353 Z" fill="#00CC00"/>
  <path d="M21.279,114.648 C23.097,117.419 23.635,120.279 22.48,121.036 C21.326,121.794 18.916,120.162 17.098,117.391 C15.281,114.62 14.743,111.76 15.897,111.003 C17.052,110.245 19.461,111.877 21.279,114.648 Z" fill="#0048FF"/>
  <path d="M20.985,98.576 C21.083,99.954 18.483,101.26 15.177,101.495 C11.872,101.729 9.113,100.803 9.015,99.426 C8.917,98.049 11.518,96.742 14.823,96.507 C18.129,96.273 20.887,97.199 20.985,98.576 Z" fill="#7ACDED"/>
  <path d="M31.19,86.224 C31.252,87.161 28.086,88.134 24.119,88.398 C20.151,88.662 16.884,88.117 16.822,87.18 C16.759,86.243 19.925,85.27 23.893,85.006 C27.861,84.742 31.128,85.287 31.19,86.224 Z" fill="#FF82B2"/>
  <path d="M118.9,78.2 C118.05,75.26 116.02,72.8 113.3,71.4 C108.7,68.9 102.94,70.61 100.45,75.21 C100.43,75.24 100.42,75.27 100.4,75.3 C98.32,79.22 99.79,84.09 103.7,86.2 C105.25,87.07 107.07,87.32 108.8,86.9 C110.58,86.5 112.08,85.33 112.9,83.7 C113.79,81.82 113.71,79.62 112.7,77.8 C111.88,76.2 110.29,75.14 108.5,75 C107.47,74.98 106.63,75.8 106.61,76.83 C106.6,77.76 107.28,78.56 108.2,78.7 C108.71,78.73 109.17,79.04 109.4,79.5 C109.75,80.21 109.82,81.04 109.6,81.8 C109.26,82.47 108.64,82.95 107.9,83.1 C107.09,83.31 106.23,83.2 105.5,82.8 C104.5,82.27 103.75,81.37 103.4,80.3 C103.1,79.2 103.21,78.03 103.7,77 C104.4,75.64 105.63,74.62 107.1,74.2 C108.57,73.78 110.13,73.92 111.5,74.6 C113.29,75.58 114.62,77.24 115.2,79.2 C115.81,81.17 115.59,83.3 114.6,85.1 C112.7,88.7 109,91.1 103.6,91.1 C100.5,91.1 82.05,90.6 82.05,90.6 L82.27,95.2 L103.4,94.9 C109.7,94.9 114.9,92.4 117.9,86.8 C119.48,84.22 119.84,81.07 118.9,78.2 Z" fill="url(#SVGID_3_)"/>
  <path d="M70,93 C70.61,93.65 71.08,94.41 71.4,95.24 L82.85,95.17 C82.85,93.67 82.65,92.17 82.65,90.57 C79.65,90.47 73.47,90.37 71.55,90.3 C71.27,91.33 70.72,92.27 69.94,93 L70,93 Z" fill="#7F0099"/>
  <path d="M104.8,54.8 L108.3,55.3 L109.2,51.8 L109.7,49.8 L89.6,47 C98.7,53.9 104.2,54.8 104.8,54.8 Z" fill="#FF4545"/>
  <path d="M120.9,5.4 L112.8,10 L110.8,11.1 L119.2,12.3 C119.8,9.8 120.9,5.4 120.9,5.4 Z" fill="#FF4545"/>
  <path d="M103,15.5 L94.7,20.2 L116.4,23.3 L117.8,17.6 Z" fill="#FF4545"/>
  <path d="M79.3,28.9 L79.2,28.9 L113.7,33.9 L115,28.6 L86.9,24.6 Z" fill="#FF4545"/>
  <path d="M82.2,40.4 L111,44.5 L112.4,39.1 L77.7,34.1 C78.1,35.2 79.3,37.4 82.2,40.4 Z" fill="#FF4545"/>
  <path d="M86.9,24.6 L115,28.6 L116.4,23.3 L94.7,20.2 Z" fill="#FF9C9C"/>
  <path d="M118.6,14.5 C118.6,14.5 118.9,13.1 119.1,12.4 L110.7,11.2 L102.9,15.6 L117.7,17.7 L118.6,14.5 Z" fill="#FF9C9C"/>
  <path d="M76.3,30.5 L77.4,33.7 C77.44,33.88 77.51,34.05 77.6,34.2 L112.3,39.2 L113.6,33.9 L79.1,29 L76.3,30.5 Z" fill="#FF9C9C"/>
  <path d="M89.2,46.7 C89.3,46.8 89.5,46.9 89.6,47 L109.7,49.9 L111,44.6 L82.2,40.5 C84.39,42.72 86.73,44.79 89.2,46.7 Z" fill="#FF9C9C"/>
  <path d="M125.6,6.5 A4.8 4.8 0 1 1 116,6.5 A4.8 4.8 0 1 1 125.6,6.5 Z" fill="#C93737"/>
  <path d="M71.84,91.83 C73.31,90.56 74.23,88.77 74.41,86.83 C74.69,84.88 74.11,82.91 72.81,81.43 C70.48,78.37 64,79.13 64,79.13 C62.26,79.2 60.25,80.03 60.5,82.03 C60.83,83.18 61.76,84.06 62.92,84.32 C65.48,84.93 69.13,84.32 69.23,86.92 C69.35,89.84 64.87,88.64 64.51,91.73 C64.15,94.82 69.23,94.41 69.23,96.54 C69.23,98.17 67.56,98.45 65.8,98.82 C64.29,99.13 61.39,99.6 61.16,101.33 C60.93,103.06 61.92,105.19 66,104.57 C72.42,103.57 74.58,100.08 74.58,97.92 C74.62,95.58 73.62,93.35 71.84,91.83 Z" fill="#422B0D"/>
  <path d="M49.86,65.43 L49.71,65.24 L49.31,64.73 L48.8,64.18 C48.6,63.96 48.36,63.72 48.12,63.48 C47.87,63.24 47.61,63.01 47.33,62.8 C47.08,62.61 46.82,62.44 46.54,62.29 C46.35,62.18 46.14,62.1 45.92,62.06 C45.85,62.05 45.79,62.05 45.72,62.06 C45.72,62.06 45.72,62.06 45.64,62.06 L45.82,62.06 L45.3,62.06 C45.17,62.06 45.3,62.06 45.3,62.06 L45.37,62.06 C45.45,62.06 45.37,62.06 45.37,62.06 C45.33,62.05 45.3,62.05 45.26,62.06 C45.04,62.1 44.83,62.18 44.64,62.29 C44.36,62.44 44.1,62.61 43.85,62.8 C43.59,63 43.32,63.24 43.06,63.48 C42.57,63.96 42.14,64.48 41.84,64.79 L41.36,65.36 L41.14,65.61 C39.78,67.12 37.5,67.36 35.85,66.18 C34.8,65.45 34.26,64.18 34.46,62.91 C34.46,62.91 34.53,62.53 34.71,61.91 C34.99,60.95 35.39,60.03 35.89,59.17 C36.67,57.75 37.73,56.5 39,55.5 C39.87,54.84 40.83,54.31 41.86,53.94 C42.14,53.83 42.44,53.74 42.73,53.67 C43.06,53.57 43.39,53.5 43.73,53.45 L44.31,53.37 L44.79,53.37 L45.31,53.37 L46.05,53.37 L46.53,53.37 C46.84,53.37 47.16,53.45 47.47,53.5 C48.08,53.61 48.67,53.77 49.25,53.98 C50.28,54.35 51.24,54.88 52.11,55.54 C53.4,56.52 54.49,57.75 55.29,59.16 C55.58,59.65 55.84,60.17 56.05,60.7 C56.24,61.14 56.38,61.61 56.5,61.96 C56.62,62.31 56.61,62.48 56.65,62.65 L56.65,62.88 C56.92,64.81 55.57,66.6 53.64,66.87 C53.6,66.88 53.56,66.88 53.53,66.88 C52.14,67.09 50.73,66.54 49.86,65.43 Z" fill="#422B0D"/>
  <path d="M87,65.43 L86.85,65.24 L86.45,64.73 L86,64.18 C85.8,63.96 85.56,63.72 85.32,63.48 C85.07,63.24 84.81,63.01 84.53,62.8 C84.28,62.61 84.02,62.44 83.74,62.29 C83.55,62.18 83.34,62.1 83.13,62.06 C83.06,62.05 83,62.05 82.93,62.06 C82.93,62.06 82.87,62.06 82.85,62.06 L83,62.06 L82.48,62.06 C82.34,62.06 82.48,62.06 82.48,62.06 L82.55,62.06 C82.63,62.06 82.55,62.06 82.55,62.06 L82.44,62.06 C82.23,62.1 82.02,62.18 81.83,62.29 C81.55,62.44 81.29,62.61 81.04,62.8 C80.76,63.01 80.5,63.24 80.25,63.48 C79.75,63.96 79.33,64.48 79.02,64.79 L78.54,65.36 L78.32,65.61 C76.96,67.12 74.68,67.36 73.03,66.18 C71.98,65.45 71.44,64.18 71.64,62.91 C71.64,62.91 71.71,62.53 71.9,61.91 C72.15,60.94 72.52,60 73,59.12 C73.8,57.71 74.89,56.48 76.18,55.5 C77.05,54.84 78.02,54.31 79.05,53.94 C79.33,53.83 79.62,53.74 79.91,53.67 C80.24,53.57 80.57,53.5 80.91,53.45 L81.49,53.37 L81.97,53.37 L82.49,53.37 L83.23,53.37 L83.71,53.37 C84.03,53.37 84.34,53.45 84.65,53.5 C86.34,53.79 87.93,54.48 89.3,55.5 C90.59,56.48 91.67,57.71 92.48,59.12 C92.77,59.61 93.02,60.13 93.23,60.66 C93.41,61.07 93.56,61.49 93.68,61.92 C93.75,62.15 93.8,62.38 93.83,62.61 L93.83,62.84 C94.11,64.76 92.77,66.55 90.85,66.82 C90.81,66.83 90.77,66.83 90.72,66.84 C89.32,67.06 87.9,66.53 87,65.43 Z" fill="#422B0D"/>
</svg>

<svg viewBox="0 0 128 128" xmlns="http://www.w3.org/2000/svg">
  <g id="gold">
    <radialGradient id="face_1_" cx="63.59" cy="3189.0901" gradientTransform="matrix(1 0 0 1 0 -3114)" gradientUnits="userSpaceOnUse" r="50.6587">
      <stop offset="0.5" stop-color="#FDE030"/>
      <stop offset="0.92" stop-color="#F7C02B"/>
      <stop offset="1" stop-color="#F4A223"/>
    </radialGradient>
    <path id="face" d="M63.6,124.8c-24.81,0-51.6-15.56-51.6-49.71s26.79-49.71,51.6-49.71 c13.78,0,26.5,4.53,35.93,12.8c10.22,9.08,15.65,21.88,15.65,36.91s-5.43,27.75-15.65,36.82C90.1,120.18,77.29,124.8,63.6,124.8z" fill="url(#face_1_)"/>
    <path d="M106.19,45.54c4.88,8.1,7.38,17.42,7.21,26.88c0,15-5.43,27.75-15.65,36.82 c-9.43,8.27-22.23,12.89-35.93,12.89c-16.06,0-32.93-6.53-42.84-20.4c9.57,15.71,27.56,23.07,44.62,23.07 c13.69,0,26.5-4.62,35.93-12.89c10.22-9.08,15.65-21.79,15.65-36.82C115.18,63.76,112.09,53.69,106.19,45.54z" fill="#EB8F00"/>
  </g>
  <g id="facial_expressions">
    <g id="face-with-party-horn-and-party-hat">
      <g id="blush">
        <radialGradient id="SVGID_1_" cx="69.6326" cy="-1087.7263" gradientTransform="matrix(0.98 0 0 -0.88 -34.44 -882.08)" gradientUnits="userSpaceOnUse" r="19.4365">
          <stop offset="0" stop-color="#ED7770"/>
          <stop offset="0.9" stop-color="#ED7770" stop-opacity="0"/>
        </radialGradient>
        <ellipse cx="33.8" cy="71.6" enable-background="new " fill="url(#SVGID_1_)" opacity="0.8" rx="17.5" ry="16.5"/>
        <radialGradient id="SVGID_2_" cx="126.52" cy="-1042.59" gradientTransform="matrix(1 0 0 -1 0 130)" gradientUnits="userSpaceOnUse" r="19.43">
          <stop offset="0" stop-color="#ED7770"/>
          <stop offset="0.9" stop-color="#ED7770" stop-opacity="0"/>
        </radialGradient>
        <ellipse cx="94.2" cy="71.6" enable-background="new " fill="url(#SVGID_2_)" opacity="0.8" rx="17.5" ry="16.5"/>
      </g>
      <g id="prop">
        <g id="confetti">
          <ellipse cx="24" cy="15" fill="#FF00A2" rx="7" ry="5"/>
          <ellipse cx="49.56" cy="25.38" fill="#FD3B3B" rx="4.2" ry="5.5" transform="matrix(0.7071 -0.7071 0.7071 0.7071 -3.4319 42.4789)"/>
          <ellipse cx="72.51" cy="18.21" fill="#00EEFF" rx="8.4" ry="3.9" transform="matrix(0.7908 -0.6121 0.6121 0.7908 4.0229 48.1947)"/>
          <ellipse cx="22.71" cy="81.68" fill="#0048FF" rx="2.9" ry="6.5" transform="matrix(0.866 -0.5 0.5 0.866 -37.7988 22.297)"/>
          <ellipse cx="96.5" cy="110.5" fill="#F63BBE" rx="3.5" ry="5.5"/>
          <ellipse cx="115.38" cy="57.1" fill="#00CC00" rx="6.5" ry="2" transform="matrix(0.8177 -0.5756 0.5756 0.8177 -11.8342 76.8165)"/>
          <ellipse cx="19.19" cy="116.02" fill="#0048FF" rx="2.5" ry="6" transform="matrix(0.8361 -0.5486 0.5486 0.8361 -60.5046 29.5428)"/>
          <ellipse cx="15" cy="99" fill="#7ACDED" rx="6" ry="2.5" transform="matrix(0.9975 -0.0708 0.0708 0.9975 -6.9716 1.3106)"/>
          <ellipse cx="24.01" cy="86.7" fill="#FF82B2" rx="7.2" ry="1.7" transform="matrix(0.9978 -0.0664 0.0664 0.9978 -5.7082 1.7869)"/>
          <linearGradient id="SVGID_3_" gradientTransform="matrix(1 0 0 -1 0 -820)" gradientUnits="userSpaceOnUse" x1="82.19" x2="119.38" y1="-902.7255" y2="-902.7255">
            <stop offset="0" stop-color="#004054"/>
            <stop offset="0.99" stop-color="#45A4FF"/>
          </linearGradient>
          <path d="M118.9,78.2c-0.85-2.94-2.88-5.4-5.6-6.8c-4.6-2.5-10.36-0.79-12.85,3.81 c-0.02,0.03-0.03,0.06-0.05,0.09c-2.08,3.92-0.61,8.79,3.3,10.9c1.55,0.87,3.37,1.12,5.1,0.7c1.78-0.4,3.28-1.57,4.1-3.2 c0.89-1.88,0.81-4.08-0.2-5.9c-0.82-1.6-2.41-2.66-4.2-2.8c-1.03-0.02-1.87,0.8-1.89,1.83c-0.01,0.93,0.67,1.73,1.59,1.87 c0.51,0.03,0.97,0.34,1.2,0.8c0.35,0.71,0.42,1.54,0.2,2.3c-0.34,0.67-0.96,1.15-1.7,1.3c-0.81,0.21-1.67,0.1-2.4-0.3 c-1-0.53-1.75-1.43-2.1-2.5c-0.3-1.1-0.19-2.27,0.3-3.3c0.7-1.36,1.93-2.38,3.4-2.8c1.47-0.42,3.03-0.28,4.4,0.4 c1.79,0.98,3.12,2.64,3.7,4.6c0.61,1.97,0.39,4.1-0.6,5.9c-1.9,3.6-5.6,6-11,6c-3.1,0-21.55-0.5-21.55-0.5l0.22,4.6l21.13-0.3 c6.3,0,11.5-2.5,14.5-8.1C119.48,84.22,119.84,81.07,118.9,78.2z" fill="url(#SVGID_3_)"/>
          <path d="M70,93c0.61,0.65,1.08,1.41,1.4,2.24l11.45-0.07c0-1.5-0.2-3-0.2-4.6c-3-0.1-9.18-0.2-11.1-0.27 c-0.28,1.03-0.83,1.97-1.61,2.7H70z" fill="#7F0099"/>
          <path d="M63.52,81.18" fill="#422B0D"/>
        </g>
        <g id="hat">
          <path d="M104.8,54.8l3.5,0.5l0.9-3.5l0.5-2L89.6,47C98.7,53.9,104.2,54.8,104.8,54.8z" fill="#FF4545"/>
          <path d="M120.9,5.4l-8.1,4.6l-2,1.1l8.4,1.2C119.8,9.8,120.9,5.4,120.9,5.4z" fill="#FF4545"/>
          <polygon fill="#FF4545" points="103,15.5 94.7,20.2 116.4,23.3 117.8,17.6 "/>
          <polygon fill="#FF4545" points="79.3,28.9 79.2,28.9 113.7,33.9 115,28.6 86.9,24.6 "/>
          <path d="M82.2,40.4l28.8,4.1l1.4-5.4l-34.7-5C78.1,35.2,79.3,37.4,82.2,40.4z" fill="#FF4545"/>
          <polygon fill="#FF9C9C" points="86.9,24.6 115,28.6 116.4,23.3 94.7,20.2 "/>
          <path d="M118.6,14.5c0,0,0.3-1.4,0.5-2.1l-8.4-1.2l-7.8,4.4l14.8,2.1L118.6,14.5z" fill="#FF9C9C"/>
          <path d="M76.3,30.5l1.1,3.2c0.04,0.18,0.11,0.35,0.2,0.5l34.7,5l1.3-5.3L79.1,29L76.3,30.5z" fill="#FF9C9C"/>
          <path d="M89.2,46.7c0.1,0.1,0.3,0.2,0.4,0.3l20.1,2.9l1.3-5.3l-28.8-4.1 C84.39,42.72,86.73,44.79,89.2,46.7z" fill="#FF9C9C"/>
          <circle cx="120.8" cy="6.5" fill="#C93737" r="4.8"/>
        </g>
      </g>
    </g>
    <path d="M71.84,91.83c1.47-1.27,2.39-3.06,2.57-5c0.28-1.95-0.3-3.92-1.6-5.4c-2.33-3.06-8.81-2.3-8.81-2.3 c-1.74,0.07-3.75,0.9-3.5,2.9c0.33,1.15,1.26,2.03,2.42,2.29c2.56,0.61,6.21,0,6.31,2.6c0.12,2.92-4.36,1.72-4.72,4.81 s4.72,2.68,4.72,4.81c0,1.63-1.67,1.91-3.43,2.28c-1.51,0.31-4.41,0.78-4.64,2.51s0.76,3.86,4.84,3.24c6.42-1,8.58-4.49,8.58-6.65 C74.62,95.58,73.62,93.35,71.84,91.83z" fill="#422B0D"/>
    <g id="smiling-eyes-grinning-face">
      <g id="eyes">
        <path d="M49.86,65.43l-0.15-0.19l-0.4-0.51l-0.51-0.55c-0.2-0.22-0.44-0.46-0.68-0.7 c-0.25-0.24-0.51-0.47-0.79-0.68c-0.25-0.19-0.51-0.36-0.79-0.51c-0.19-0.11-0.4-0.19-0.62-0.23c-0.07-0.01-0.13-0.01-0.2,0 c0,0,0,0-0.08,0h0.18H45.3c-0.13,0,0,0,0,0h0.07c0.08,0,0,0,0,0c-0.04-0.01-0.07-0.01-0.11,0c-0.22,0.04-0.43,0.12-0.62,0.23 c-0.28,0.15-0.54,0.32-0.79,0.51c-0.26,0.2-0.53,0.44-0.79,0.68c-0.49,0.48-0.92,1-1.22,1.31l-0.48,0.57l-0.22,0.25 c-1.36,1.51-3.64,1.75-5.29,0.57c-1.05-0.73-1.59-2-1.39-3.27c0,0,0.07-0.38,0.25-1c0.28-0.96,0.68-1.88,1.18-2.74 c0.78-1.42,1.84-2.67,3.11-3.67c0.87-0.66,1.83-1.19,2.86-1.56c0.28-0.11,0.58-0.2,0.87-0.27c0.33-0.1,0.66-0.17,1-0.22 l0.58-0.08h0.48h0.52h0.74h0.48c0.31,0,0.63,0.08,0.94,0.13c0.61,0.11,1.2,0.27,1.78,0.48c1.03,0.37,1.99,0.9,2.86,1.56 c1.29,0.98,2.38,2.21,3.18,3.62c0.29,0.49,0.55,1.01,0.76,1.54c0.19,0.44,0.33,0.91,0.45,1.26s0.11,0.52,0.15,0.69v0.23 c0.27,1.93-1.08,3.72-3.01,3.99c-0.04,0.01-0.08,0.01-0.11,0.01C52.14,67.09,50.73,66.54,49.86,65.43z" fill="#422B0D"/>
        <path d="M87,65.43l-0.15-0.19l-0.4-0.51L86,64.18c-0.2-0.22-0.44-0.46-0.68-0.7 c-0.25-0.24-0.51-0.47-0.79-0.68c-0.25-0.19-0.51-0.36-0.79-0.51c-0.19-0.11-0.4-0.19-0.61-0.23c-0.07-0.01-0.13-0.01-0.2,0 c0,0-0.06,0-0.08,0H83h-0.52c-0.14,0,0,0,0,0h0.07c0.08,0,0,0,0,0h-0.11c-0.21,0.04-0.42,0.12-0.61,0.23 c-0.28,0.15-0.54,0.32-0.79,0.51c-0.28,0.21-0.54,0.44-0.79,0.68c-0.5,0.48-0.92,1-1.23,1.31l-0.48,0.57l-0.22,0.25 c-1.36,1.51-3.64,1.75-5.29,0.57c-1.05-0.73-1.59-2-1.39-3.27c0,0,0.07-0.38,0.26-1c0.25-0.97,0.62-1.91,1.1-2.79 c0.8-1.41,1.89-2.64,3.18-3.62c0.87-0.66,1.84-1.19,2.87-1.56c0.28-0.11,0.57-0.2,0.86-0.27c0.33-0.1,0.66-0.17,1-0.22l0.58-0.08 h0.48h0.52h0.74h0.48c0.32,0,0.63,0.08,0.94,0.13c1.69,0.29,3.28,0.98,4.65,2c1.29,0.98,2.37,2.21,3.18,3.62 c0.29,0.49,0.54,1.01,0.75,1.54c0.18,0.41,0.33,0.83,0.45,1.26c0.07,0.23,0.12,0.46,0.15,0.69v0.23 c0.28,1.92-1.06,3.71-2.98,3.98c-0.04,0.01-0.08,0.01-0.13,0.02C89.32,67.06,87.9,66.53,87,65.43z" fill="#422B0D"/>
      </g>
    </g>
  </g>
</svg>
